X:5012
T:Eddystone Light, The
T:Asteroid Light, The
R:Reel
C:Trad.
O:England
Z:Paul Hardy's Session Tunebook 2022 (see www.paulhardy.net). Creative Commons cc by-nc-sa licenced.
M:4/4
L:1/8
Q:1/4=200
K:D
A2|"D"dddd "A"AAAA|"D"FFG2 A2AA|"G"B2BB "A7"c2c2|"D"d2D2 D2z2|"D"d2dd "A"A2A2|"D"F2G2 A2z2|
"G"B2BB "A7"cccc|"D"ddD2 D2z2|"E"E2E2 e3d|"A"c2A2 A2z2|A2AA "G"BBc2|"D"d2D2 D2|]

